X: 911
T: Sourwood Mountain
B: jims roots
M:C|
L:1/8
Q: 1/4=100
K:A
V:1 
A2 || "A"ABcd e2e2 | "D"fgaf "A"e[e2c] A | [e3c]B A2f2 | "E7"ecBG "A"A2A2 |
ABcd e2e2 | "D"fgaf "A"e[e3c] |:[e3c]GA2e2 | "E7"ecBG "A"A2AB | cecB A2 AB |
"E7"cABG "A"A2F2 | [1 [M:2/4]A3 A :| [2 [M:C|]A3A "D"A2f2 | "E7"ecBG "A"A2|]
% abcbook-tune_id 6298c287e64dee50efb8059f


% abcbook-boost 0
% abcbook-tablature 
% abcbook-transpose 
% abcbook-lastupdated 1654178440670
% abcbook-soundfonts 
% abcbook-repeats 1


